!!!COM: Music21
!!!OTL: slide_Star-Above-The-Garter--The
!!!OMV: slide_Star-Above-The-Garter--The
**kern
*clefG2
*k[f#]
*G:
*M12/8
=1
4dd
8b
8bL
8a
8gJ
4.a
8aL
8b
8aJ
=
4g
8e
4cc
8b
8bL
8a
8gJ
8aL
8b
8ccJ
=
4dd
8b
8bL
8a
8gJ
4.a
8aL
8b
8aJ
=
4g
8e
4cc
8e
4.d
4.d
!!linebreak:original
=||
*M12/8
4dd
8b
8bL
8a
8gJ
4.a
8aL
8b
8aJ
=
4g
8e
4cc
8b
8bL
8a
8gJ
8aL
8b
8ccJ
=
4dd
8b
8bL
8a
8gJ
4.a
8aL
8b
8aJ
=
4g
8e
4cc
8e
4.d
4.d
!!linebreak:original
=||
4dd
8ee
4ff#
8aa
4gg
8ee
4dd
8b
=
4g
8b
4cc
8b
8bL
8a
8gJ
8aL
8b
8ccJ
=
4dd
8ee
4ff#
8aa
4gg
8ee
4dd
8b
=
4g
8b
4cc
8e
4.d
4.d
=||
4dd
8ee
4ff#
8aa
4gg
8ee
4dd
8b
!!linebreak:original
=
4g
8b
4cc
8b
8bL
8a
8gJ
8aL
8b
8ccJ
=
4dd
8ee
4ff#
8aa
4gg
8ee
4dd
8b
=
4g
8b
4cc
8e
4.d
4.d
=||
*-
